symbolic/24x24/apps/applications-interfacedesign.svg

<svg xmlns="http://www.w3.org/2000/svg" width="24" height="24" version="1">
 <path style="fill:#c7c7c7" d="M 2,5.5 V 20 c 0,0.5544 0.445625,1 1,1 H 21.0005 C 21.5545,21 22,20.5545 22,20 V 5.5 Z"/>
 <rect style="opacity:0.2" width="16" height="2" x="4" y="15.5" rx=".762" ry=".829"/>
 <path style="fill:#5a6367" d="M 3,3 C 2.4456,3 2,3.44575 2,3.99975 V 6 H 22 V 3.99975 C 22,3.44575 21.5545,3 21,3 Z"/>
 <path style="opacity:0.1;fill:#ffffff" d="M 3,3 C 2.4456,3 2,3.446 2,4 v 0.5 c 0,-0.554 0.4456,-1 1,-1 h 18 c 0.5544,0 1,0.446 1,1 V 4 C 22,3.446 21.5545,3 21,3 Z"/>
 <path style="opacity:0.2" d="m 2,20 v 0.5 c 0,0.5544 0.445625,1 1,1 H 21.001 C 21.5545,21.5 22,21.0545 22,20.5 V 20 c 0,0.5544 -0.445275,1 -0.999,1 H 3 C 2.4456,21 2,20.5545 2,20 Z"/>
 <rect style="fill:#ffffff" width="16" height="2" x="4" y="15" rx=".762" ry=".829"/>
 <path style="opacity:0.1;fill-rule:evenodd" d="m 18,16.5 c 0,1.655998 -1.344002,3 -3,3 -1.656,0 -3,-1.344002 -3,-3 0,-1.656 1.344,-3 3,-3 1.655998,0 3,1.344 3,3 z"/>
 <path style="fill:#5294e2;fill-rule:evenodd" d="m 18,16 c 0,1.655998 -1.344002,3 -3,3 -1.656,0 -3,-1.344002 -3,-3 0,-1.656 1.344,-3 3,-3 1.655998,0 3,1.344 3,3 z"/>
 <circle style="opacity:0.2" cx="5" cy="8.5" r="1"/>
 <circle style="fill:#ffffff" cx="5" cy="8" r="1"/>
 <rect style="opacity:0.1" width="2" height="2" x="8" y="11.5" rx=".315" ry=".344"/>
 <rect style="fill:#5294e2" width="2" height="2" x="8" y="11" rx=".315" ry=".344"/>
 <rect style="opacity:0.2" width="2" height="2" x="8" y="7.5" rx=".315" ry=".344"/>
 <rect style="fill:#ffffff" width="2" height="2" x="8" y="7" rx=".315" ry=".344"/>
 <circle style="opacity:0.1" cx="5" cy="12.5" r="1"/>
 <circle style="fill:#5294e2" cx="5" cy="12" r="1"/>
</svg>

<svg xmlns="http://www.w3.org/2000/svg" width="24" height="24" version="1"><path style="fill:#c7c7c7" d="M2 5.5V20c0 .554.446 1 1 1h18c.555 0 1-.445 1-1V5.5z"/><rect style="opacity:.2" width="16" height="2" x="4" y="15.5" rx=".762" ry=".829"/><path style="fill:#5a6367" d="M3 3c-.554 0-1 .446-1 1v2h20V4c0-.554-.445-1-1-1z"/><path style="opacity:.1;fill:#fff" d="M3 3c-.554 0-1 .446-1 1v.5c0-.554.446-1 1-1h18c.554 0 1 .446 1 1V4c0-.554-.445-1-1-1z"/><path style="opacity:.2" d="M2 20v.5c0 .554.446 1 1 1h18.001a.997.997 0 0 0 .999-1V20c0 .554-.445 1-.999 1H3c-.554 0-1-.445-1-1z"/><rect style="fill:#fff" width="16" height="2" x="4" y="15" rx=".762" ry=".829"/><path style="opacity:.1;fill-rule:evenodd" d="M18 16.5a3.001 3.001 0 0 1-6 0 3.001 3.001 0 0 1 6 0z"/><path style="fill:#5294e2;fill-rule:evenodd" d="M18 16a3.001 3.001 0 0 1-6 0 3.001 3.001 0 0 1 6 0z"/><circle style="opacity:.2" cx="5" cy="8.5" r="1"/><circle style="fill:#fff" cx="5" cy="8" r="1"/><rect style="opacity:.1" width="2" height="2" x="8" y="11.5" rx=".315" ry=".344"/><rect style="fill:#5294e2" width="2" height="2" x="8" y="11" rx=".315" ry=".344"/><rect style="opacity:.2" width="2" height="2" x="8" y="7.5" rx=".315" ry=".344"/><rect style="fill:#fff" width="2" height="2" x="8" y="7" rx=".315" ry=".344"/><circle style="opacity:.1" cx="5" cy="12.5" r="1"/><circle style="fill:#5294e2" cx="5" cy="12" r="1"/></svg>
